dengyh16code/MQA_ICRA2021/train/logs/act/run_2020-10-17_16:26:16.204795.log
2020-10-17 16:26:16,205 {'vocab_json': '../data/vocab.json', 'mode': 'train', 'reward_type': 'avg', 'memory_dir': '../data/memory', 'memory_size': 4000, 'batch_size': 16, 'first_train': True, 'learn_step': 0, 'learning_rate': 0.001, 'target_q_update_step': 100, 'epsilon_start': 1, 'epsilon_end': 0.1, 'reward_weight_start': 1, 'reward_weight_end': 0.1, 'epsilon_update_step': 2000, 'discount': 0.6, 'max_step': 10, 'print_every': 5, 'eval_every': 10, 'save_every': 200, 'model': 'act', 'checkpoint_dir': '../data/checkpoints/act/10_17_16:26_act', 'log_dir': 'logs/act/10_17_16:26_act', 'time_id': '10_17_16:26', 'gpus': [0]}
2020-10-17 16:28:34,026 updtate target q
2020-10-17 16:31:51,719 avg_reward:0.0054776179634928234
2020-10-17 16:31:51,720 avg_reward_e:0.0057534316090861425
2020-10-17 16:31:51,720 avg_reward_q:-0.1
2020-10-17 16:31:51,720 avg_loss:0.004368975514080375
2020-10-17 16:31:51,720 avg_q:0.09634482115507126
2020-10-17 16:35:34,118 avg_reward:0.0005384770676782555
2020-10-17 16:35:34,118 avg_reward_e:0.001131502955401431
2020-10-17 16:35:34,118 avg_reward_q:-0.1
2020-10-17 16:35:34,118 avg_loss:0.0006777876347769052
2020-10-17 16:35:34,118 avg_q:0.09141869097948074
2020-10-17 16:38:52,544 avg_reward:-0.0019528524749834284
2020-10-17 16:38:52,544 avg_reward_e:0.00025497590174471596
2020-10-17 16:38:52,544 avg_reward_q:-0.2
2020-10-17 16:38:52,544 avg_loss:0.0004894979792879894
2020-10-17 16:38:52,544 avg_q:0.08997109532356262
2020-10-17 16:39:17,059 avg_reward:-0.006586800057428094
2020-10-17 16:39:17,059 avg_reward_e:0.00016543329201407472
2020-10-17 16:39:17,059 avg_reward_q:-0.5
2020-10-17 16:39:17,059 avg_loss:0.0009524320485070348
2020-10-17 16:39:17,059 avg_q:0.08847388625144958
2020-10-17 16:39:41,473 avg_reward:-0.006832609909020044
2020-10-17 16:39:41,473 avg_reward_e:0.00014440453423250832
2020-10-17 16:39:41,473 avg_reward_q:-0.5
2020-10-17 16:39:41,473 avg_loss:0.0003488979418762028
2020-10-17 16:39:41,473 avg_q:0.0905829519033432
2020-10-17 16:42:35,995 avg_reward:-0.0037595333369058884
2020-10-17 16:42:35,995 avg_reward_e:0.0010730346446344923
2020-10-17 16:42:35,996 avg_reward_q:-0.3
2020-10-17 16:42:35,996 avg_loss:0.0009684410761110485
2020-10-17 16:42:35,996 avg_q:0.08340486884117126
2020-10-17 16:43:00,516 avg_reward:-0.008946167897822127
2020-10-17 16:43:00,516 avg_reward_e:0.0005135379698072441
2020-10-17 16:43:00,516 avg_reward_q:-0.5
2020-10-17 16:43:00,517 avg_loss:0.0002609406947158277
2020-10-17 16:43:00,517 avg_q:0.08040333539247513
2020-10-17 16:43:01,472 avg_reward:0.0
2020-10-17 16:43:01,472 avg_reward_e:0.0
2020-10-17 16:43:01,472 avg_reward_q:0.0
2020-10-17 16:43:01,472 avg_loss:0.0007498287013731897
2020-10-17 16:43:01,472 avg_q:0.06758863478899002
2020-10-17 16:46:19,765 avg_reward:-0.002773306694535296
2020-10-17 16:46:19,765 avg_reward_e:0.0015809150552367423
2020-10-17 16:46:19,765 avg_reward_q:-0.2
2020-10-17 16:46:19,765 avg_loss:0.00046945738140493634
2020-10-17 16:46:19,765 avg_q:0.08075164258480072
2020-10-17 16:48:46,946 avg_reward:0.0007157494793360884
2020-10-17 16:48:46,946 avg_reward_e:0.0007347150288245212
2020-10-17 16:48:46,946 avg_reward_q:0.0
2020-10-17 16:48:46,946 avg_loss:0.0005241189792286605
2020-10-17 16:48:46,946 avg_q:0.07878715544939041
2020-10-17 16:52:54,841 avg_reward:0.002999951368198197
2020-10-17 16:52:54,842 avg_reward_e:0.003086601905170616
2020-10-17 16:52:54,842 avg_reward_q:0.0
2020-10-17 16:52:54,842 avg_loss:0.0003520888349157758
2020-10-17 16:52:54,842 avg_q:0.08161216229200363
2020-10-17 16:55:50,449 avg_reward:-0.00945397958451273
2020-10-17 16:55:50,449 avg_reward_e:0.001066684224317035
2020-10-17 16:55:50,449 avg_reward_q:-0.3
2020-10-17 16:55:50,449 avg_loss:0.00021088663270347753
2020-10-17 16:55:50,449 avg_q:0.0843382328748703
2020-10-17 16:56:15,277 avg_reward:-0.017381702906301897
2020-10-17 16:56:15,277 avg_reward_e:0.0006413870266577995
2020-10-17 16:56:15,277 avg_reward_q:-0.5
2020-10-17 16:56:15,277 avg_loss:0.00022062109201215208
2020-10-17 16:56:15,278 avg_q:0.0818864032626152
2020-10-17 17:00:22,585 avg_reward:0.0005825435137172855
2020-10-17 17:00:22,585 avg_reward_e:0.0006052055693152829
2020-10-17 17:00:22,585 avg_reward_q:0.0
2020-10-17 17:00:22,585 avg_loss:0.0004910776697215624
2020-10-17 17:00:22,585 avg_q:0.08298123627901077
2020-10-17 17:04:29,795 updtate target q
2020-10-17 17:04:30,074 avg_reward:0.0006519931340204298
2020-10-17 17:04:30,074 avg_reward_e:0.0006811469945619814
2020-10-17 17:04:30,074 avg_reward_q:0.0
2020-10-17 17:04:30,075 avg_loss:0.0006377788449754007
2020-10-17 17:04:30,075 avg_q:0.09067781269550323
2020-10-17 17:04:55,858 avg_reward:-0.020457892690959777
2020-10-17 17:04:55,858 avg_reward_e:0.002376173680998027
2020-10-17 17:04:55,858 avg_reward_q:-0.5
2020-10-17 17:04:55,858 avg_loss:0.002136883296770975
2020-10-17 17:04:55,858 avg_q:0.14282575249671936
2020-10-17 17:09:04,320 avg_reward:0.0018354402435958729
2020-10-17 17:09:04,320 avg_reward_e:0.0019272155990297454
2020-10-17 17:09:04,320 avg_reward_q:0.0
2020-10-17 17:09:04,320 avg_loss:0.0019768088357523085
2020-10-17 17:09:04,320 avg_q:0.14071381092071533
2020-10-17 17:12:47,040 avg_reward:-0.0029108460518552284
2020-10-17 17:12:47,040 avg_reward_e:0.0025821343087127926
2020-10-17 17:12:47,040 avg_reward_q:-0.1
2020-10-17 17:12:47,040 avg_loss:0.0015606248576659708
2020-10-17 17:12:47,040 avg_q:0.13145165145397186
2020-10-17 17:16:03,801 avg_reward:-0.008469847526704955
2020-10-17 17:16:03,801 avg_reward_e:0.0028568228766936397
2020-10-17 17:16:03,801 avg_reward_q:-0.2
2020-10-17 17:16:03,801 avg_loss:0.0010199572585406712
2020-10-17 17:16:03,801 avg_q:0.1364424079656601
2020-10-17 17:16:28,213 avg_reward:-0.02935770399388237
2020-10-17 17:16:28,213 avg_reward_e:0.0006034101006409686
2020-10-17 17:16:28,213 avg_reward_q:-0.5
2020-10-17 17:16:28,214 avg_loss:0.0016390455421060324
2020-10-17 17:16:28,214 avg_q:0.12869219481945038
2020-10-17 17:20:11,298 avg_reward:-0.003363958047940978
2020-10-17 17:20:11,299 avg_reward_e:0.0030797262506806317
2020-10-17 17:20:11,299 avg_reward_q:-0.1
2020-10-17 17:20:11,299 avg_loss:0.0012094410078134388
2020-10-17 17:20:11,299 avg_q:0.13257330656051636
2020-10-17 17:23:31,460 avg_reward:-0.007672684234799991
2020-10-17 17:23:31,460 avg_reward_e:0.006239922163004784
2020-10-17 17:23:31,460 avg_reward_q:-0.2
2020-10-17 17:23:31,460 avg_loss:0.0006245696102268993
2020-10-17 17:23:31,460 avg_q:0.14001624286174774
2020-10-17 17:23:55,940 avg_reward:-0.03458164045792742
2020-10-17 17:23:55,941 avg_reward_e:7.344959930438691e-05
2020-10-17 17:23:55,941 avg_reward_q:-0.5
2020-10-17 17:23:55,941 avg_loss:0.0028590818401426077
2020-10-17 17:23:55,941 avg_q:0.13718034327030182
2020-10-17 17:27:38,491 avg_reward:-0.005590021764646852
2020-10-17 17:27:38,491 avg_reward_e:0.0017365278679987734
2020-10-17 17:27:38,491 avg_reward_q:-0.1
2020-10-17 17:27:38,491 avg_loss:0.0010109838811331428
2020-10-17 17:27:38,491 avg_q:0.13098087906837463
2020-10-17 17:28:02,889 avg_reward:-0.036584424885819616
2020-10-17 17:28:02,889 avg_reward_e:0.00058393207040821
2020-10-17 17:28:02,889 avg_reward_q:-0.5
2020-10-17 17:28:02,889 avg_loss:0.00018211425049230456
2020-10-17 17:28:02,889 avg_q:0.1340181976556778
2020-10-17 17:31:45,020 avg_reward:-0.005439247513273603
2020-10-17 17:31:45,020 avg_reward_e:0.00258606589015545
2020-10-17 17:31:45,020 avg_reward_q:-0.1
2020-10-17 17:31:45,020 avg_loss:0.0005218505786615424
2020-10-17 17:31:45,020 avg_q:0.13895997405052185
2020-10-17 17:32:09,308 avg_reward:-0.039099359069086924
2020-10-17 17:32:09,308 avg_reward_e:0.0005437021404355383
2020-10-17 17:32:09,308 avg_reward_q:-0.5
2020-10-17 17:32:09,308 avg_loss:0.0017509881872683764
2020-10-17 17:32:09,308 avg_q:0.13321039080619812
2020-10-17 17:32:33,396 avg_reward:0.007773467174371904
2020-10-17 17:32:33,397 avg_reward_e:0.008446207610552403
2020-10-17 17:32:33,397 avg_reward_q:0.0
2020-10-17 17:32:33,397 avg_loss:0.0006206206744536757
2020-10-17 17:32:33,397 avg_q:0.13203847408294678
2020-10-17 17:32:57,318 avg_reward:-0.03726972475231632
2020-10-17 17:32:57,318 avg_reward_e:0.0030223668308334718
2020-10-17 17:32:57,318 avg_reward_q:-0.5
2020-10-17 17:32:57,318 avg_loss:0.0010185119463130832
2020-10-17 17:32:57,318 avg_q:0.12827163934707642
2020-10-17 17:36:12,235 avg_reward:-0.015933274829217497
2020-10-17 17:36:12,235 avg_reward_e:0.0003889028583635722
2020-10-17 17:36:12,235 avg_reward_q:-0.2
2020-10-17 17:36:12,235 avg_loss:0.0008849928533891215
2020-10-17 17:36:12,235 avg_q:0.13069327175617218
2020-10-17 17:36:36,240 avg_reward:-0.04194469513776525
2020-10-17 17:36:36,241 avg_reward_e:0.000634247622530989
2020-10-17 17:36:36,241 avg_reward_q:-0.5
2020-10-17 17:36:36,241 avg_loss:0.00028260776889510453
2020-10-17 17:36:36,241 avg_q:0.14436465501785278
2020-10-17 17:39:28,165 avg_reward:-0.024274561638560215
2020-10-17 17:39:28,165 avg_reward_e:0.002196354970955235
2020-10-17 17:39:28,165 avg_reward_q:-0.3
2020-10-17 17:39:28,165 avg_loss:0.0017456318601034582
2020-10-17 17:39:28,165 avg_q:0.1304619312286377
2020-10-17 17:39:51,970 updtate target q
2020-10-17 17:39:52,244 avg_reward:-0.044715702917045
2020-10-17 17:39:52,244 avg_reward_e:0.0003124143768736098
2020-10-17 17:39:52,244 avg_reward_q:-0.5
2020-10-17 17:39:52,245 avg_loss:0.0021412649657577276
2020-10-17 17:39:52,245 avg_q:0.12398499250411987
2020-10-17 17:40:16,431 avg_reward:-0.037412299739169895
2020-10-17 17:40:16,431 avg_reward_e:0.008589632522489274
2020-10-17 17:40:16,431 avg_reward_q:-0.5
2020-10-17 17:40:16,431 avg_loss:0.0021046623587608337
2020-10-17 17:40:16,431 avg_q:0.14410331845283508
2020-10-17 17:43:35,166 avg_reward:-0.014929662266004017
2020-10-17 17:43:35,166 avg_reward_e:0.004030736928966358
2020-10-17 17:43:35,166 avg_reward_q:-0.2
2020-10-17 17:43:35,166 avg_loss:0.0017881604377180337
2020-10-17 17:43:35,166 avg_q:0.13944101333618164
2020-10-17 17:47:19,081 avg_reward:-0.00886896335471647
2020-10-17 17:47:19,082 avg_reward_e:0.0009923953325225087
2020-10-17 17:47:19,082 avg_reward_q:-0.1
2020-10-17 17:47:19,082 avg_loss:0.0031431459705345333
2020-10-17 17:47:19,082 avg_q:0.13619178533554077
2020-10-17 17:47:43,799 avg_reward:-0.04911551077199837
2020-10-17 17:47:43,800 avg_reward_e:0.0009271072414194221
2020-10-17 17:47:43,800 avg_reward_q:-0.5
2020-10-17 17:47:43,800 avg_loss:0.0028674372006207705
2020-10-17 17:47:43,800 avg_q:0.13561780750751495
2020-10-17 17:51:28,982 avg_reward:-0.009047774768034736
2020-10-17 17:51:28,982 avg_reward_e:0.0013992785971019537
2020-10-17 17:51:28,982 avg_reward_q:-0.1
2020-10-17 17:51:28,982 avg_loss:0.0019456396868918091
2020-10-17 17:51:28,982 avg_q:0.14117220044136047
2020-10-17 17:55:39,651 avg_reward:0.0006046658037652259
2020-10-17 17:55:39,652 avg_reward_e:0.0006773168986594941
2020-10-17 17:55:39,652 avg_reward_q:0.0
2020-10-17 17:55:39,652 avg_loss:0.0012042718182783574
2020-10-17 17:55:39,652 avg_q:0.14504016935825348
2020-10-17 17:56:05,085 avg_reward:-0.053969309621286925
2020-10-17 17:56:05,085 avg_reward_e:0.0007923318685377042
2020-10-17 17:56:05,085 avg_reward_q:-0.5
2020-10-17 17:56:05,085 avg_loss:0.0064321947284042835
2020-10-17 17:56:05,085 avg_q:0.13578113913536072
2020-10-17 17:56:48,698 avg_reward:-0.0358290898491334
2020-10-17 17:56:48,698 avg_reward_e:0.021423174736987873
2020-10-17 17:56:48,698 avg_reward_q:-0.5
2020-10-17 17:56:48,698 avg_loss:0.0004549780278466642
2020-10-17 17:56:48,698 avg_q:0.1550721973180771
2020-10-17 17:56:57,884 avg_reward:-0.054810924481039365
2020-10-17 17:56:57,884 avg_reward_e:0.0003529929968649809
2020-10-17 17:56:57,884 avg_reward_q:-0.5
2020-10-17 17:56:57,884 avg_loss:0.0007597100920975208
2020-10-17 17:56:57,884 avg_q:0.14756059646606445
2020-10-17 17:57:07,045 avg_reward:-0.05240541178611617
2020-10-17 17:57:07,045 avg_reward_e:0.0033111303428357574
2020-10-17 17:57:07,045 avg_reward_q:-0.5
2020-10-17 17:57:07,045 avg_loss:0.0061914874240756035
2020-10-17 17:57:07,045 avg_q:0.11714679002761841
2020-10-17 17:57:16,185 avg_reward:-0.05530707843284628
2020-10-17 17:57:16,186 avg_reward_e:0.00030142495038949795
2020-10-17 17:57:16,186 avg_reward_q:-0.5
2020-10-17 17:57:16,186 avg_loss:0.0027994222473353148
2020-10-17 17:57:16,186 avg_q:0.1340586245059967
2020-10-17 17:57:25,311 avg_reward:-0.05555237278820591
2020-10-17 17:57:25,311 avg_reward_e:0.00027873391692267356
2020-10-17 17:57:25,312 avg_reward_q:-0.5
2020-10-17 17:57:25,312 avg_loss:0.002655754331499338
2020-10-17 17:57:25,312 avg_q:0.15051649510860443
2020-10-17 17:57:34,415 avg_reward:-0.055771788642875554
2020-10-17 17:57:34,415 avg_reward_e:0.0002851639812201565
2020-10-17 17:57:34,415 avg_reward_q:-0.5
2020-10-17 17:57:34,415 avg_loss:0.0013564489781856537
2020-10-17 17:57:34,415 avg_q:0.15587922930717468
2020-10-17 17:57:43,644 avg_reward:-0.045227640847329706
2020-10-17 17:57:43,644 avg_reward_e:0.01241955960864261
2020-10-17 17:57:43,644 avg_reward_q:-0.5
2020-10-17 17:57:43,644 avg_loss:0.003223495092242956
2020-10-17 17:57:43,644 avg_q:0.14075182378292084
2020-10-17 17:57:52,785 avg_reward:-0.0559583990496478
2020-10-17 17:57:52,785 avg_reward_e:0.0005823808695701466
2020-10-17 17:57:52,786 avg_reward_q:-0.5
2020-10-17 17:57:52,786 avg_loss:0.001487565808929503
2020-10-17 17:57:52,786 avg_q:0.14531193673610687
2020-10-17 17:58:01,967 avg_reward:-0.05629068991380405
2020-10-17 17:58:01,967 avg_reward_e:0.00046166262823812846
2020-10-17 17:58:01,967 avg_reward_q:-0.5
2020-10-17 17:58:01,967 avg_loss:0.004258499946445227
2020-10-17 17:58:01,967 avg_q:0.13466286659240723
2020-10-17 17:58:11,154 avg_reward:-0.05634746948129868
2020-10-17 17:58:11,154 avg_reward_e:0.000651729976529174
2020-10-17 17:58:11,154 avg_reward_q:-0.5
2020-10-17 17:58:11,154 avg_loss:0.005338870920240879
2020-10-17 17:58:11,154 avg_q:0.12960544228553772
2020-10-17 17:58:20,399 avg_reward:-0.056301958862081156
2020-10-17 17:58:20,399 avg_reward_e:0.0009574812441219598
2020-10-17 17:58:20,399 avg_reward_q:-0.5
2020-10-17 17:58:20,399 avg_loss:0.004790814593434334
2020-10-17 17:58:20,399 avg_q:0.12182428687810898
2020-10-17 17:58:29,627 avg_reward:-0.057152868445964435
2020-10-17 17:58:29,628 avg_reward_e:0.0002509252234234141
2020-10-17 17:58:29,628 avg_reward_q:-0.5
2020-10-17 17:58:29,628 avg_loss:0.0031463836785405874
2020-10-17 17:58:29,628 avg_q:0.13759231567382812
2020-10-17 17:58:38,859 avg_reward:-0.057496831465785644
2020-10-17 17:58:38,859 avg_reward_e:0.00011660096543212132
2020-10-17 17:58:38,859 avg_reward_q:-0.5
2020-10-17 17:58:38,859 avg_loss:0.004677383229136467
2020-10-17 17:58:38,859 avg_q:0.14464491605758667
2020-10-17 17:59:24,735 avg_reward:0.004256633274847576
2020-10-17 17:59:24,735 avg_reward_e:0.004818547514198663
2020-10-17 17:59:24,735 avg_reward_q:0.0
2020-10-17 17:59:24,735 avg_loss:0.004297493933700025
2020-10-17 17:59:24,735 avg_q:0.13448987901210785
2020-10-17 17:59:33,998 avg_reward:-0.05892639053347153
2020-10-17 17:59:33,998 avg_reward_e:2.6765068051770035e-05
2020-10-17 17:59:33,998 avg_reward_q:-0.5
2020-10-17 17:59:33,998 avg_loss:0.004367921967059374
2020-10-17 17:59:33,999 avg_q:0.1296510398387909
2020-10-17 17:59:52,250 avg_reward:0.0035679783039820052
2020-10-17 17:59:52,250 avg_reward_e:0.004048991450028911
2020-10-17 17:59:52,250 avg_reward_q:0.0
2020-10-17 17:59:52,250 avg_loss:0.0037920622853562236
2020-10-17 17:59:52,250 avg_q:0.137417733669281
2020-10-17 18:00:01,453 avg_reward:-0.059586135987404955
2020-10-17 18:00:01,453 avg_reward_e:4.412604325294022e-05
2020-10-17 18:00:01,453 avg_reward_q:-0.5
2020-10-17 18:00:01,453 avg_loss:0.005331464111804962
2020-10-17 18:00:01,453 avg_q:0.11526597291231155
2020-10-17 18:00:10,601 avg_reward:-0.05976520172063669
2020-10-17 18:00:10,602 avg_reward_e:9.632884171682782e-05
2020-10-17 18:00:10,602 avg_reward_q:-0.5
2020-10-17 18:00:10,602 avg_loss:0.005223264917731285
2020-10-17 18:00:10,602 avg_q:0.12962830066680908
2020-10-17 18:00:11,186 avg_reward:0.0
2020-10-17 18:00:11,186 avg_reward_e:0.0
2020-10-17 18:00:11,186 avg_reward_q:0.0
2020-10-17 18:00:11,186 avg_loss:0.008771015331149101
2020-10-17 18:00:11,186 avg_q:0.09986384958028793
2020-10-17 18:00:20,505 avg_reward:0.0013387422014011288
2020-10-17 18:00:20,505 avg_reward_e:0.07009181510279867
2020-10-17 18:00:20,505 avg_reward_q:-0.5
2020-10-17 18:00:20,506 avg_loss:0.004501434974372387
2020-10-17 18:00:20,506 avg_q:0.13003794848918915
2020-10-17 18:00:29,698 avg_reward:-0.014985173504495818
2020-10-17 18:00:29,698 avg_reward_e:0.051811623522958275
2020-10-17 18:00:29,698 avg_reward_q:-0.5
2020-10-17 18:00:29,698 avg_loss:0.004772122949361801
2020-10-17 18:00:29,698 avg_q:0.1156972199678421
2020-10-17 18:00:38,954 avg_reward:-0.060695902046205626
2020-10-17 18:00:38,954 avg_reward_e:6.157991325486878e-05
2020-10-17 18:00:38,954 avg_reward_q:-0.5
2020-10-17 18:00:38,954 avg_loss:0.004530726466327906
2020-10-17 18:00:38,955 avg_q:0.12470248341560364
2020-10-17 18:00:48,123 avg_reward:-0.06092041165452959
2020-10-17 18:00:48,123 avg_reward_e:6.21699737718898e-05
2020-10-17 18:00:48,123 avg_reward_q:-0.5
2020-10-17 18:00:48,123 avg_loss:0.0016654983628541231
2020-10-17 18:00:48,124 avg_q:0.14290310442447662
2020-10-17 18:00:57,281 avg_reward:-0.061145163229014934
2020-10-17 18:00:57,281 avg_reward_e:6.24849259173876e-05
2020-10-17 18:00:57,281 avg_reward_q:-0.5
2020-10-17 18:00:57,281 avg_loss:0.001956650987267494
2020-10-17 18:00:57,281 avg_q:0.14177121222019196
2020-10-17 18:02:20,829 avg_reward:-0.01203544172447769
2020-10-17 18:02:20,829 avg_reward_e:0.00043893752424002745
2020-10-17 18:02:20,829 avg_reward_q:-0.1
2020-10-17 18:02:20,829 avg_loss:0.005532866984140128
2020-10-17 18:02:20,829 avg_q:0.11754969507455826
2020-10-17 18:03:17,943 avg_reward:-0.050096777033241856
2020-10-17 18:03:17,943 avg_reward_e:0.0015376511392303318
2020-10-17 18:03:17,943 avg_reward_q:-0.4
2020-10-17 18:03:17,943 avg_loss:0.0033384488080628215
2020-10-17 18:03:17,943 avg_q:0.12014169991016388
2020-10-17 18:03:27,063 avg_reward:-0.06578714503138375
2020-10-17 18:03:27,063 avg_reward_e:0.0001587916473147116
2020-10-17 18:03:27,064 avg_reward_q:-0.5
2020-10-17 18:03:27,064 avg_loss:0.0037385548930615187
2020-10-17 18:03:27,064 avg_q:0.12152716517448425
2020-10-17 18:03:36,182 avg_reward:-0.06161085220674999
2020-10-17 18:03:36,183 avg_reward_e:0.005231240974126997
2020-10-17 18:03:36,183 avg_reward_q:-0.5
2020-10-17 18:03:36,183 avg_loss:0.005034510046243668
2020-10-17 18:03:36,183 avg_q:0.11024735122919083
2020-10-17 18:03:45,251 avg_reward:-0.0663416371281664
2020-10-17 18:03:45,251 avg_reward_e:3.846972826015617e-05
2020-10-17 18:03:45,251 avg_reward_q:-0.5
2020-10-17 18:03:45,251 avg_loss:0.001547207124531269
2020-10-17 18:03:45,251 avg_q:0.14560143649578094
2020-10-17 18:04:22,101 updtate target q
2020-10-17 18:05:07,557 avg_reward:-0.009801738001943106
2020-10-17 18:05:07,558 avg_reward_e:0.00412119236167751
2020-10-17 18:05:07,558 avg_reward_q:-0.1
2020-10-17 18:05:07,558 avg_loss:0.017898528696969153
2020-10-17 18:05:07,558 avg_q:0.2194613218307495
2020-10-17 18:05:16,617 avg_reward:-0.06794810280529069
2020-10-17 18:05:16,617 avg_reward_e:0.0010459204391850651
2020-10-17 18:05:16,617 avg_reward_q:-0.5
2020-10-17 18:05:16,617 avg_loss:0.010633674450218678
2020-10-17 18:05:16,617 avg_q:0.27384883165359497
2020-10-17 18:05:25,751 avg_reward:-0.06898374880608894
2020-10-17 18:05:25,751 avg_reward_e:0.0001058782780194421
2020-10-17 18:05:25,751 avg_reward_q:-0.5
2020-10-17 18:05:25,751 avg_loss:0.013068840838968754
2020-10-17 18:05:25,751 avg_q:0.3173358738422394
2020-10-17 18:05:34,868 avg_reward:-0.0563424483766315
2020-10-17 18:05:34,868 avg_reward_e:0.015042432810968807
2020-10-17 18:05:34,868 avg_reward_q:-0.5
2020-10-17 18:05:34,868 avg_loss:0.01050812378525734
2020-10-17 18:05:34,868 avg_q:0.3369321823120117
2020-10-17 18:05:43,949 avg_reward:-0.065423960700953
2020-10-17 18:05:43,949 avg_reward_e:0.004763388465122259
2020-10-17 18:05:43,949 avg_reward_q:-0.5
2020-10-17 18:05:43,949 avg_loss:0.004108093678951263
2020-10-17 18:05:43,949 avg_q:0.3344833552837372
2020-10-17 18:05:53,027 avg_reward:-0.063623581636993
2020-10-17 18:05:53,027 avg_reward_e:0.007119602978508978
2020-10-17 18:05:53,027 avg_reward_q:-0.5
2020-10-17 18:05:53,027 avg_loss:0.008333143778145313
2020-10-17 18:05:53,027 avg_q:0.2775929868221283
2020-10-17 18:06:02,034 avg_reward:-0.06996667986487341
2020-10-17 18:06:02,034 avg_reward_e:9.674013285965861e-06
2020-10-17 18:06:02,034 avg_reward_q:-0.5
2020-10-17 18:06:02,034 avg_loss:0.012429121881723404
2020-10-17 18:06:02,034 avg_q:0.27872663736343384
2020-10-17 18:06:11,188 avg_reward:-0.07017557480014427
2020-10-17 18:06:11,189 avg_reward_e:2.841461127931967e-05
2020-10-17 18:06:11,189 avg_reward_q:-0.5
2020-10-17 18:06:11,189 avg_loss:0.008248470723628998
2020-10-17 18:06:11,189 avg_q:0.29744645953178406
2020-10-17 18:06:20,339 avg_reward:-0.07040006183382735
2020-10-17 18:06:20,340 avg_reward_e:2.902655668120394e-05
2020-10-17 18:06:20,340 avg_reward_q:-0.5
2020-10-17 18:06:20,340 avg_loss:0.02819783054292202
2020-10-17 18:06:20,340 avg_q:0.21629348397254944
2020-10-17 18:06:29,409 avg_reward:-0.06506997223573058
2020-10-17 18:06:29,409 avg_reward_e:0.00649822727875791
2020-10-17 18:06:29,409 avg_reward_q:-0.5
2020-10-17 18:06:29,409 avg_loss:0.021365463733673096
2020-10-17 18:06:29,409 avg_q:0.16457469761371613
2020-10-17 18:06:38,404 avg_reward:-0.07083058632144756
2020-10-17 18:06:38,404 avg_reward_e:5.17491157034212e-05
2020-10-17 18:06:38,404 avg_reward_q:-0.5
2020-10-17 18:06:38,404 avg_loss:0.014220448210835457
2020-10-17 18:06:38,404 avg_q:0.28279635310173035
2020-10-17 18:08:25,802 avg_reward:-0.06978124215204858
2020-10-17 18:08:25,802 avg_reward_e:0.001537372170612522
2020-10-17 18:08:25,802 avg_reward_q:-0.5
2020-10-17 18:08:25,802 avg_loss:0.01091509684920311
2020-10-17 18:08:25,802 avg_q:0.2597246766090393
2020-10-17 18:09:15,883 avg_reward:0.0017541666299506061
2020-10-17 18:09:15,883 avg_reward_e:0.0020466645456242586
2020-10-17 18:09:15,883 avg_reward_q:0.0
2020-10-17 18:09:15,883 avg_loss:0.01874516811221838
2020-10-17 18:09:15,883 avg_q:0.31071633100509644
2020-10-17 18:13:03,313 avg_reward:1.4104059902172588
2020-10-17 18:13:03,313 avg_reward_e:1.6681608915514148
2020-10-17 18:13:03,313 avg_reward_q:-0.1
2020-10-17 18:13:03,313 avg_loss:0.01572827585041523
2020-10-17 18:13:03,313 avg_q:0.2767782509326935
2020-10-17 18:13:03,393 max action reward:1.4104059902172588
2020-10-17 18:13:55,710 avg_reward:-0.07347265279156312
2020-10-17 18:13:55,710 avg_reward_e:0.0006483328932882123
2020-10-17 18:13:55,710 avg_reward_q:-0.5
2020-10-17 18:13:55,710 avg_loss:0.03959466889500618
2020-10-17 18:13:55,710 avg_q:0.1774069368839264
2020-10-17 18:17:23,729 avg_reward:-0.02813498155255606
2020-10-17 18:17:23,729 avg_reward_e:0.0023707384083049873
2020-10-17 18:17:23,729 avg_reward_q:-0.2
2020-10-17 18:17:23,729 avg_loss:0.02381535544991493
2020-10-17 18:17:23,729 avg_q:0.2757135331630707
2020-10-17 18:21:40,693 avg_reward:0.0021003855412482534
2020-10-17 18:21:40,693 avg_reward_e:0.00248694850060402
2020-10-17 18:21:40,693 avg_reward_q:0.0
2020-10-17 18:21:40,693 avg_loss:0.014812141191214323
2020-10-17 18:21:40,693 avg_q:0.2597779631614685
2020-10-17 18:21:41,766 avg_reward:0.0
2020-10-17 18:21:41,766 avg_reward_e:0.0
2020-10-17 18:21:41,766 avg_reward_q:0.0
2020-10-17 18:21:41,766 avg_loss:0.004946732893586159
2020-10-17 18:21:41,766 avg_q:0.29136785864830017
2020-10-17 18:21:42,825 avg_reward:0.0
2020-10-17 18:21:42,825 avg_reward_e:0.0
2020-10-17 18:21:42,825 avg_reward_q:0.0
2020-10-17 18:21:42,826 avg_loss:0.009347973391413689
2020-10-17 18:21:42,826 avg_q:0.27667880058288574
2020-10-17 18:22:08,991 avg_reward:-0.07896560491786199
2020-10-17 18:22:08,992 avg_reward_e:0.00027851126679896075
2020-10-17 18:22:08,992 avg_reward_q:-0.5
2020-10-17 18:22:08,992 avg_loss:0.015159916132688522
2020-10-17 18:22:08,992 avg_q:0.2843271791934967
2020-10-17 18:26:04,621 avg_reward:-0.014848796856623376
2020-10-17 18:26:04,621 avg_reward_e:0.0015550797856859646
2020-10-17 18:26:04,621 avg_reward_q:-0.1
2020-10-17 18:26:04,621 avg_loss:0.01087817009538412
2020-10-17 18:26:04,621 avg_q:0.2554720938205719
2020-10-17 18:30:23,861 avg_reward:0.0006041729146044021
2020-10-17 18:30:23,861 avg_reward_e:0.0007233849579939479
2020-10-17 18:30:23,861 avg_reward_q:0.0
2020-10-17 18:30:23,861 avg_loss:2.5553607577458024
2020-10-17 18:30:23,861 avg_q:0.4671490788459778
2020-10-17 18:30:49,710 avg_reward:-0.07614966975131697
2020-10-17 18:30:49,710 avg_reward_e:0.009343664301728128
2020-10-17 18:30:49,710 avg_reward_q:-0.5
2020-10-17 18:30:49,711 avg_loss:0.11313095688819885
2020-10-17 18:30:49,711 avg_q:0.266979843378067
2020-10-17 18:31:15,533 avg_reward:-0.08210323134463453
2020-10-17 18:31:15,533 avg_reward_e:0.002460945840285534
2020-10-17 18:31:15,533 avg_reward_q:-0.5
2020-10-17 18:31:15,533 avg_loss:0.010785035789012909
2020-10-17 18:31:15,533 avg_q:0.2445698380470276
2020-10-17 18:35:11,002 avg_reward:-0.016073612453000076
2020-10-17 18:35:11,002 avg_reward_e:0.001182884799216334
2020-10-17 18:35:11,002 avg_reward_q:-0.1
2020-10-17 18:35:11,002 avg_loss:0.055661757662892344
2020-10-17 18:35:11,002 avg_q:0.30074915289878845
2020-10-17 18:39:30,511 avg_reward:0.0009882342939444588
2020-10-17 18:39:30,511 avg_reward_e:0.0011975720038244434
2020-10-17 18:39:30,511 avg_reward_q:0.0
2020-10-17 18:39:30,511 avg_loss:0.02861959394067526
2020-10-17 18:39:30,511 avg_q:0.2779119908809662
2020-10-17 18:41:40,237 updtate target q
2020-10-17 18:43:23,425 avg_reward:-0.017743736967811806
2020-10-17 18:43:23,426 avg_reward_e:0.00014787513185081242
2020-10-17 18:43:23,426 avg_reward_q:-0.1
2020-10-17 18:43:23,426 avg_loss:1.2340937693603338
2020-10-17 18:43:23,426 avg_q:1.2829906940460205
2020-10-17 18:45:31,640 avg_reward:0.0009107585464319298
2020-10-17 18:45:31,640 avg_reward_e:0.0011159586966388766
2020-10-17 18:45:31,640 avg_reward_q:0.0
2020-10-17 18:45:31,640 avg_loss:4.0677898645401
2020-10-17 18:45:31,640 avg_q:2.0651891231536865
2020-10-17 18:45:57,419 avg_reward:-0.09155472459245974
2020-10-17 18:45:57,419 avg_reward_e:0.00085257560703895
2020-10-17 18:45:57,419 avg_reward_q:-0.5
2020-10-17 18:45:57,419 avg_loss:1.9742063283920288
2020-10-17 18:45:57,419 avg_q:2.349496364593506
2020-10-17 18:50:13,195 avg_reward:0.0018081830595364523
2020-10-17 18:50:13,195 avg_reward_e:0.002222763504113546
2020-10-17 18:50:13,195 avg_reward_q:0.0
2020-10-17 18:50:13,195 avg_loss:2.055843251943588
2020-10-17 18:50:13,196 avg_q:2.4874653816223145
2020-10-17 18:50:38,750 avg_reward:-0.09453996312485526
2020-10-17 18:50:38,750 avg_reward_e:0.0002282855778727436
2020-10-17 18:50:38,750 avg_reward_q:-0.5
2020-10-17 18:50:38,750 avg_loss:0.9351930618286133
2020-10-17 18:50:38,750 avg_q:2.3331820964813232
2020-10-17 18:55:00,984 avg_reward:0.0005220643167539632
2020-10-17 18:55:00,985 avg_reward_e:0.0006458233563304998
2020-10-17 18:55:00,985 avg_reward_q:0.0
2020-10-17 18:55:00,985 avg_loss:1.4296867430210114
2020-10-17 18:55:00,985 avg_q:2.292142629623413
2020-10-17 18:55:02,036 avg_reward:0.0
2020-10-17 18:55:02,036 avg_reward_e:0.0
2020-10-17 18:55:02,036 avg_reward_q:0.0
2020-10-17 18:55:02,036 avg_loss:1.9145958423614502
2020-10-17 18:55:02,036 avg_q:1.9784367084503174
2020-10-17 18:55:28,165 avg_reward:-0.09731943397738257
2020-10-17 18:55:28,165 avg_reward_e:0.00013111348521071194
2020-10-17 18:55:28,165 avg_reward_q:-0.5
2020-10-17 18:55:28,165 avg_loss:12.218611717224121
2020-10-17 18:55:28,165 avg_q:2.8855743408203125
2020-10-17 18:59:45,535 avg_reward:0.0009831641676488272
2020-10-17 18:59:45,535 avg_reward_e:0.0012236809890812583
2020-10-17 18:59:45,535 avg_reward_q:0.0
2020-10-17 18:59:45,535 avg_loss:1.8747570663690567
2020-10-17 18:59:45,535 avg_q:2.3841185569763184
2020-10-17 19:04:06,400 avg_reward:0.00235167026863142
2020-10-17 19:04:06,400 avg_reward_e:0.002942004570040186
2020-10-17 19:04:06,400 avg_reward_q:0.0
2020-10-17 19:04:06,400 avg_loss:2.0257934242486955
2020-10-17 19:04:06,401 avg_q:2.2823407649993896
2020-10-17 19:08:04,109 avg_reward:-0.019334011950108216
2020-10-17 19:08:04,109 avg_reward_e:0.0018341962526472297
2020-10-17 19:08:04,109 avg_reward_q:-0.1
2020-10-17 19:08:04,109 avg_loss:0.8862518668174744
2020-10-17 19:08:04,109 avg_q:2.262672185897827
2020-10-17 19:11:40,225 avg_reward:-0.041636755392219796
2020-10-17 19:11:40,226 avg_reward_e:0.0005559534342645156
2020-10-17 19:11:40,226 avg_reward_q:-0.2
2020-10-17 19:11:40,226 avg_loss:2.0230262696743013
2020-10-17 19:11:40,226 avg_q:2.399831771850586
2020-10-17 19:16:12,379 avg_reward:0.000532426110968009
2020-10-17 19:16:12,380 avg_reward_e:0.0006795591604922876
2020-10-17 19:16:12,380 avg_reward_q:0.0
2020-10-17 19:16:12,380 avg_loss:0.9179434031248093
2020-10-17 19:16:12,380 avg_q:2.284514904022217
2020-10-17 19:20:20,869 avg_reward:-0.020398351731405147
2020-10-17 19:20:20,869 avg_reward_e:0.0019479290398335964
2020-10-17 19:20:20,869 avg_reward_q:-0.1
2020-10-17 19:20:20,869 avg_loss:0.6512680560350418
2020-10-17 19:20:20,869 avg_q:2.281043767929077
2020-10-17 19:23:32,534 updtate target q
2020-10-17 19:24:54,549 avg_reward:0.0001430559346257862
2020-10-17 19:24:54,550 avg_reward_e:0.00018433167451745278
2020-10-17 19:24:54,550 avg_reward_q:0.0
2020-10-17 19:24:54,550 avg_loss:0.729856339097023
2020-10-17 19:24:54,550 avg_q:2.4534783363342285
2020-10-17 19:25:21,448 avg_reward:-0.11328030252132677
2020-10-17 19:25:21,448 avg_reward_e:0.00015480791344182998
2020-10-17 19:25:21,448 avg_reward_q:-0.5
2020-10-17 19:25:21,448 avg_loss:1.1805757284164429
2020-10-17 19:25:21,448 avg_q:2.9810986518859863
2020-10-17 19:29:25,384 avg_reward:-0.022111975242216662
2020-10-17 19:29:25,384 avg_reward_e:0.0010867806519097186
2020-10-17 19:29:25,384 avg_reward_q:-0.1
2020-10-17 19:29:25,384 avg_loss:2.6469899296760557
2020-10-17 19:29:25,384 avg_q:2.90388822555542
2020-10-17 19:29:52,441 avg_reward:-0.11418960386505746
2020-10-17 19:29:52,442 avg_reward_e:0.002193812085834754
2020-10-17 19:29:52,442 avg_reward_q:-0.5
2020-10-17 19:29:52,442 avg_loss:1.7626821994781494
2020-10-17 19:29:52,442 avg_q:2.9362635612487793
2020-10-17 19:33:30,386 avg_reward:-0.043574581841206675
2020-10-17 19:33:30,386 avg_reward_e:0.00421139069726159
2020-10-17 19:33:30,387 avg_reward_q:-0.2
2020-10-17 19:33:30,387 avg_loss:1.2271068871021271
2020-10-17 19:33:30,387 avg_q:2.8131277561187744
2020-10-17 19:33:56,987 avg_reward:-0.11692521497828864
2020-10-17 19:33:56,987 avg_reward_e:0.0018666121075741795
2020-10-17 19:33:56,987 avg_reward_q:-0.5
2020-10-17 19:33:56,987 avg_loss:1.391237735748291
2020-10-17 19:33:56,987 avg_q:2.7424771785736084
2020-10-17 19:34:24,017 avg_reward:-0.11810380747961245
2020-10-17 19:34:24,017 avg_reward_e:0.0006176738813495966
2020-10-17 19:34:24,017 avg_reward_q:-0.5
2020-10-17 19:34:24,017 avg_loss:1.6097546815872192
2020-10-17 19:34:24,017 avg_q:2.9629709720611572
2020-10-17 19:38:53,805 avg_reward:0.0007622994135939913
2020-10-17 19:38:53,805 avg_reward_e:0.0010010929529965871
2020-10-17 19:38:53,805 avg_reward_q:0.0
2020-10-17 19:38:53,805 avg_loss:0.9349902868270874
2020-10-17 19:38:53,805 avg_q:2.8083009719848633
2020-10-17 19:42:32,872 avg_reward:-0.0483912902725722
2020-10-17 19:42:32,872 avg_reward_e:0.00045484071632437533
2020-10-17 19:42:32,872 avg_reward_q:-0.2
2020-10-17 19:42:32,873 avg_loss:0.8346212536096573
2020-10-17 19:42:32,873 avg_q:2.9989173412323
2020-10-17 19:46:10,370 avg_reward:-0.049299198059260065
2020-10-17 19:46:10,370 avg_reward_e:0.0003271411449573661
2020-10-17 19:46:10,370 avg_reward_q:-0.2
2020-10-17 19:46:10,370 avg_loss:0.5513577550649643
2020-10-17 19:46:10,370 avg_q:3.0793519020080566
2020-10-17 19:50:09,145 avg_reward:-0.02515748382384384
2020-10-17 19:50:09,145 avg_reward_e:0.00023780542232558713
2020-10-17 19:50:09,145 avg_reward_q:-0.1
2020-10-17 19:50:09,145 avg_loss:0.6904135107994079
2020-10-17 19:50:09,145 avg_q:2.845919370651245
2020-10-17 19:53:49,521 avg_reward:0.0011756972682341583
2020-10-17 19:53:49,521 avg_reward_e:0.001580852966274272
2020-10-17 19:53:49,521 avg_reward_q:0.0
2020-10-17 19:53:49,521 avg_loss:0.8402289897203445
2020-10-17 19:53:49,521 avg_q:2.896353244781494
2020-10-17 19:56:17,423 avg_reward:-0.025049324300712366
2020-10-17 19:56:17,423 avg_reward_e:0.0016691512400414186
2020-10-17 19:56:17,423 avg_reward_q:-0.1
2020-10-17 19:56:17,423 avg_loss:0.7488937050104141
2020-10-17 19:56:17,423 avg_q:2.8276729583740234
2020-10-17 19:59:01,842 avg_reward:0.0015705729406192003
2020-10-17 19:59:01,842 avg_reward_e:0.0021406952819721416
2020-10-17 19:59:01,843 avg_reward_q:0.0
2020-10-17 19:59:01,843 avg_loss:0.7459507077932358
2020-10-17 19:59:01,843 avg_q:3.0626981258392334
2020-10-17 19:59:18,261 avg_reward:-0.13429609033854237
2020-10-17 19:59:18,261 avg_reward_e:0.0003473931611131998
2020-10-17 19:59:18,261 avg_reward_q:-0.5
2020-10-17 19:59:18,261 avg_loss:0.36752426624298096
2020-10-17 19:59:18,261 avg_q:2.9714717864990234
2020-10-17 19:59:34,706 avg_reward:-0.13279275223741388
2020-10-17 19:59:34,707 avg_reward_e:0.0027137350435842214
2020-10-17 19:59:34,707 avg_reward_q:-0.5
2020-10-17 19:59:34,707 avg_loss:0.3184521496295929
2020-10-17 19:59:34,707 avg_q:2.9869208335876465
2020-10-17 19:59:50,907 updtate target q
2020-10-17 20:01:47,312 avg_reward:-0.05424282004779814
2020-10-17 20:01:47,312 avg_reward_e:0.0004080001817301046
2020-10-17 20:01:47,312 avg_reward_q:-0.2
2020-10-17 20:01:47,312 avg_loss:2.925174742937088
2020-10-17 20:01:47,312 avg_q:3.983058214187622
2020-10-17 20:02:03,582 avg_reward:-0.1372103907903437
2020-10-17 20:02:03,582 avg_reward_e:5.459574039460743e-05
2020-10-17 20:02:03,582 avg_reward_q:-0.5
2020-10-17 20:02:03,582 avg_loss:0.7818979024887085
2020-10-17 20:02:03,582 avg_q:3.825106620788574
2020-10-17 20:02:19,879 avg_reward:-0.13741010608906598
2020-10-17 20:02:19,879 avg_reward_e:8.950267006968989e-05
2020-10-17 20:02:19,879 avg_reward_q:-0.5
2020-10-17 20:02:19,879 avg_loss:0.6084184646606445
2020-10-17 20:02:19,879 avg_q:3.5250115394592285
2020-10-17 20:02:36,085 avg_reward:-0.1376493228972716
2020-10-17 20:02:36,085 avg_reward_e:6.993803854316252e-05
2020-10-17 20:02:36,085 avg_reward_q:-0.5
2020-10-17 20:02:36,085 avg_loss:1.64698326587677
2020-10-17 20:02:36,085 avg_q:3.250157594680786
2020-10-17 20:02:52,178 avg_reward:-0.13788565825227558
2020-10-17 20:02:52,178 avg_reward_e:5.432817472124259e-05
2020-10-17 20:02:52,178 avg_reward_q:-0.5
2020-10-17 20:02:52,178 avg_loss:1.759175419807434
2020-10-17 20:02:52,178 avg_q:4.133858680725098
2020-10-17 20:05:03,642 avg_reward:-0.05585716225059637
2020-10-17 20:05:03,642 avg_reward_e:4.548672847901548e-05
2020-10-17 20:05:03,642 avg_reward_q:-0.2
2020-10-17 20:05:03,642 avg_loss:0.9626335367560387
2020-10-17 20:05:03,642 avg_q:3.8243165016174316
2020-10-17 20:07:29,500 avg_reward:-0.026615700609613407
2020-10-17 20:07:29,500 avg_reward_e:0.002104517972979006
2020-10-17 20:07:29,500 avg_reward_q:-0.1
2020-10-17 20:07:29,500 avg_loss:1.3405101209878922
2020-10-17 20:07:29,500 avg_q:3.861909866333008
2020-10-17 20:07:45,621 avg_reward:-0.14259003625077799
2020-10-17 20:07:45,622 avg_reward_e:8.390058657060072e-05
2020-10-17 20:07:45,622 avg_reward_q:-0.5
2020-10-17 20:07:45,622 avg_loss:0.3559246063232422
2020-10-17 20:07:45,622 avg_q:4.102275371551514
2020-10-17 20:07:46,611 avg_reward:0.0
2020-10-17 20:07:46,611 avg_reward_e:0.0
2020-10-17 20:07:46,611 avg_reward_q:0.0
2020-10-17 20:07:46,611 avg_loss:0.9689640998840332
2020-10-17 20:07:46,611 avg_q:4.112317085266113
2020-10-17 20:10:28,203 avg_reward:0.0021194904825889826
2020-10-17 20:10:28,204 avg_reward_e:0.002977736584980007
2020-10-17 20:10:28,204 avg_reward_q:0.0
2020-10-17 20:10:28,204 avg_loss:1.1009690701961516
2020-10-17 20:10:28,204 avg_q:3.9181580543518066
2020-10-17 20:10:44,320 avg_reward:-0.14521675623997646
2020-10-17 20:10:44,320 avg_reward_e:0.00018785247430356262
2020-10-17 20:10:44,320 avg_reward_q:-0.5
2020-10-17 20:10:44,320 avg_loss:0.5030607581138611
2020-10-17 20:10:44,320 avg_q:4.395555019378662
2020-10-17 20:11:00,426 avg_reward:-0.14522441641511136
2020-10-17 20:11:00,426 avg_reward_e:0.0004945807785690119
2020-10-17 20:11:00,426 avg_reward_q:-0.5
2020-10-17 20:11:00,426 avg_loss:0.38552606105804443
2020-10-17 20:11:00,426 avg_q:3.5368003845214844
2020-10-17 20:13:11,082 avg_reward:-0.058365377268883536
2020-10-17 20:13:11,082 avg_reward_e:0.000637421777534197
2020-10-17 20:13:11,082 avg_reward_q:-0.2
2020-10-17 20:13:11,082 avg_loss:1.106300424039364
2020-10-17 20:13:11,082 avg_q:3.9151036739349365
2020-10-17 20:13:27,285 avg_reward:-0.14791563322037032
2020-10-17 20:13:27,286 avg_reward_e:0.00019088901780037987
2020-10-17 20:13:27,286 avg_reward_q:-0.5
2020-10-17 20:13:27,286 avg_loss:1.2512726783752441
2020-10-17 20:13:27,286 avg_q:3.8371784687042236
2020-10-17 20:13:28,215 avg_reward:0.0
2020-10-17 20:13:28,215 avg_reward_e:0.0
2020-10-17 20:13:28,215 avg_reward_q:0.0
2020-10-17 20:13:28,215 avg_loss:0.9684635400772095
2020-10-17 20:13:28,215 avg_q:4.406126022338867
2020-10-17 20:15:54,486 avg_reward:-0.027250003252387585
2020-10-17 20:15:54,486 avg_reward_e:0.0036780590055518194
2020-10-17 20:15:54,486 avg_reward_q:-0.1
2020-10-17 20:15:54,486 avg_loss:1.5613422244787216
2020-10-17 20:15:54,486 avg_q:3.776862382888794
2020-10-17 20:18:05,297 avg_reward:-0.06018910838088588
2020-10-17 20:18:05,297 avg_reward_e:0.00048245305073964093
2020-10-17 20:18:05,297 avg_reward_q:-0.2
2020-10-17 20:18:05,297 avg_loss:1.1601364970207215
2020-10-17 20:18:05,297 avg_q:3.858409881591797
2020-10-17 20:18:21,534 avg_reward:-0.15126031943051557
2020-10-17 20:18:21,534 avg_reward_e:0.00250674433643292
2020-10-17 20:18:21,534 avg_reward_q:-0.5
2020-10-17 20:18:21,534 avg_loss:1.069018840789795
2020-10-17 20:18:21,535 avg_q:3.840214252471924
2020-10-17 20:20:47,690 avg_reward:-0.03050588084177742
2020-10-17 20:20:47,690 avg_reward_e:0.0005267361375562049
2020-10-17 20:20:47,690 avg_reward_q:-0.1
2020-10-17 20:20:47,691 avg_loss:1.8604321718215941
2020-10-17 20:20:47,691 avg_q:4.114207744598389
2020-10-17 20:21:03,813 avg_reward:-0.1554366977433719
2020-10-17 20:21:03,813 avg_reward_e:5.558704974693577e-05
2020-10-17 20:21:03,813 avg_reward_q:-0.5
2020-10-17 20:21:03,813 avg_loss:2.860518217086792
2020-10-17 20:21:03,813 avg_q:3.557835817337036
2020-10-17 20:21:20,032 avg_reward:-0.1556429990732535
2020-10-17 20:21:20,032 avg_reward_e:8.277799411342818e-05
2020-10-17 20:21:20,032 avg_reward_q:-0.5
2020-10-17 20:21:20,032 avg_loss:0.2973295748233795
2020-10-17 20:21:20,032 avg_q:3.8164448738098145
2020-10-17 20:21:36,207 avg_reward:-0.15451401053953784
2020-10-17 20:21:36,207 avg_reward_e:0.002050409736920946
2020-10-17 20:21:36,207 avg_reward_q:-0.5
2020-10-17 20:21:36,207 avg_loss:4.307225704193115
2020-10-17 20:21:36,207 avg_q:3.5540688037872314
2020-10-17 20:21:37,054 avg_reward:0.0
2020-10-17 20:21:37,055 avg_reward_e:0.0
2020-10-17 20:21:37,055 avg_reward_q:0.0
2020-10-17 20:21:37,055 avg_loss:0.38803407549858093
2020-10-17 20:21:37,055 avg_q:4.105122089385986
2020-10-17 20:21:53,085 avg_reward:-0.15580464254085577
2020-10-17 20:21:53,085 avg_reward_e:0.0008299126360774226
2020-10-17 20:21:53,085 avg_reward_q:-0.5
2020-10-17 20:21:53,085 avg_loss:2.365657329559326
2020-10-17 20:21:53,085 avg_q:3.5337653160095215
2020-10-17 20:23:13,594 updtate target q
2020-10-17 20:24:34,225 avg_reward:0.0009731265426580432
2020-10-17 20:24:34,225 avg_reward_e:0.001423464051994418
2020-10-17 20:24:34,225 avg_reward_q:0.0
2020-10-17 20:24:34,225 avg_loss:2.479539215564728
2020-10-17 20:24:34,225 avg_q:4.755783557891846
2020-10-17 20:24:50,216 avg_reward:-0.158744303952038
2020-10-17 20:24:50,216 avg_reward_e:0.0001549113996218598
2020-10-17 20:24:50,216 avg_reward_q:-0.5
2020-10-17 20:24:50,216 avg_loss:0.9064432382583618
2020-10-17 20:24:50,216 avg_q:5.809573173522949
2020-10-17 20:26:59,838 avg_reward:-0.06337523973541061
2020-10-17 20:26:59,838 avg_reward_e:0.0008372736297452942
2020-10-17 20:26:59,838 avg_reward_q:-0.2
2020-10-17 20:26:59,838 avg_loss:2.621180510520935
2020-10-17 20:26:59,838 avg_q:5.431140899658203
2020-10-17 20:27:16,014 avg_reward:-0.16129336795236757
2020-10-17 20:27:16,014 avg_reward_e:4.6699708618048755e-05
2020-10-17 20:27:16,014 avg_reward_q:-0.5
2020-10-17 20:27:16,014 avg_loss:2.6508660316467285
2020-10-17 20:27:16,014 avg_q:5.066123008728027
2020-10-17 20:29:11,572 avg_reward:-0.0972656373960905
2020-10-17 20:29:11,572 avg_reward_e:3.60964316617702e-05
2020-10-17 20:29:11,572 avg_reward_q:-0.3
2020-10-17 20:29:11,572 avg_loss:3.91346480846405
2020-10-17 20:29:11,572 avg_q:5.520281791687012
2020-10-17 20:29:27,950 avg_reward:-0.16378008914375577
2020-10-17 20:29:27,951 avg_reward_e:2.961162439654333e-05
2020-10-17 20:29:27,951 avg_reward_q:-0.5
2020-10-17 20:29:27,951 avg_loss:11.958988189697266
2020-10-17 20:29:27,951 avg_q:6.345085144042969
2020-10-17 20:29:43,973 avg_reward:-0.16383932833322598
2020-10-17 20:29:43,973 avg_reward_e:0.0002763176825269592
2020-10-17 20:29:43,973 avg_reward_q:-0.5
2020-10-17 20:29:43,973 avg_loss:0.6237248182296753
2020-10-17 20:29:43,973 avg_q:5.825870513916016
2020-10-17 20:30:00,431 avg_reward:-0.16099766724105327
2020-10-17 20:30:00,431 avg_reward_e:0.004843384600069596
2020-10-17 20:30:00,431 avg_reward_q:-0.5
2020-10-17 20:30:00,431 avg_loss:1.9536466598510742
2020-10-17 20:30:00,431 avg_q:5.864600658416748
2020-10-17 20:30:16,429 avg_reward:-0.1622610434552659
2020-10-17 20:30:16,429 avg_reward_e:0.003299242298985381
2020-10-17 20:30:16,429 avg_reward_q:-0.5
2020-10-17 20:30:16,429 avg_loss:5.895062446594238
2020-10-17 20:30:16,429 avg_q:5.408232688903809
2020-10-17 20:32:58,430 avg_reward:0.001983647043954754
2020-10-17 20:32:58,430 avg_reward_e:0.002972535136632451
2020-10-17 20:32:58,430 avg_reward_q:0.0
2020-10-17 20:32:58,430 avg_loss:3.3670276403427124
2020-10-17 20:32:58,430 avg_q:5.188785552978516
2020-10-17 20:33:14,533 avg_reward:-0.16463383866141593
2020-10-17 20:33:14,534 avg_reward_e:0.0034771976258581657
2020-10-17 20:33:14,534 avg_reward_q:-0.5
2020-10-17 20:33:14,534 avg_loss:0.8141162395477295
2020-10-17 20:33:14,534 avg_q:6.236756324768066
